X: 1
T: QUEEN OF THE WEST -- HORNPIPE
B: Ryan's Mammoth Collection of Fiddle Tunes
R: hornpipe
M: 2/4
L: 1/16
Z: Contributed 20010907142018 by John Chambers jmchambers:rcn.net
K: D
vFE \
| DFAF DFA,F | EGAG EGA,G | FAdF GB"4"ec | Adfd cAGE |
| DFAF DFA,F | EGAG EGA,G | FAdA Bgec | d2d2d2 :|
|: vcd \
| "4"ecAc EAc"0"e | fdAd FAdf | .g2(fg) "0"efdf | ((3"0"edc) ((3dcB) ABcd |
| ecAc EAce | fdAd FAdf | gbag fedc | d2d2d2 :|
